static/assets/images/products/kubedb/kubedb-enterprise-icon.svg

<svg width="64" height="64" viewBox="0 0 64 64" fill="none" xmlns="http://www.w3.org/2000/svg">
<g clip-path="url(#clip0)">
<path d="M51.8559 10.3221V36.4471L31.3496 45.1568V33.6377L42.8665 28.8623V13.9747L51.8559 10.3221Z" fill="#7272E9"/>
<path d="M31.3497 1.33484L51.856 10.3221L42.8666 13.9746L31.3497 8.91956L19.8328 13.9746L11.123 10.3221L31.3497 1.33484Z" fill="#7272E9"/>
<path d="M31.3497 33.6377V45.1568L11.123 36.4471V10.3221L19.8328 13.9747V28.8623L31.3497 33.6377Z" fill="#7272E9"/>
<path d="M53.2607 10.3243V10.0425V9.76072L52.979 9.48105L31.9112 0.209899C31.7555 0.0745424 31.5561 0 31.3498 0C31.1435 0 30.9441 0.0745424 30.7883 0.209899L10.282 8.91961L10.0003 9.19928V9.48105V9.76072V35.8856C9.99487 36.175 10.0708 36.4602 10.2196 36.7085C10.3683 36.9568 10.5837 37.1584 10.8414 37.2903L31.0659 46H32.7481L52.9727 37.2903C53.2306 37.1588 53.4464 36.9573 53.5951 36.7089C53.7439 36.4604 53.8197 36.1751 53.8138 35.8856L53.2523 10.3243H53.2607ZM31.3498 3.01921L47.9239 10.3243L42.8667 12.57L31.9112 7.79462C31.7555 7.65926 31.5561 7.58472 31.3498 7.58472C31.1435 7.58472 30.9441 7.65926 30.7883 7.79462L19.8329 12.2904H19.5511L14.7757 10.3243L31.3498 3.01921ZM29.9451 42.9089L12.5278 35.3158V12.2904L18.4282 14.8137V28.5869C18.4226 28.8763 18.4984 29.1616 18.6472 29.4099C18.7959 29.6583 19.0115 29.8599 19.2693 29.9915L29.9451 34.4747V42.9089ZM31.3498 32.2352L21.2375 28.0297V15.0997L31.3498 10.6039L41.462 15.0997V28.0212L31.3498 32.2352ZM50.1717 35.3158L32.7544 42.9005V34.7628L43.4281 30.2691C43.6863 30.1378 43.9022 29.9364 44.0509 29.6879C44.1997 29.4394 44.2754 29.154 44.2692 28.8645V14.8179L50.1696 12.2946L50.1717 35.3158Z" fill="#4949A3"/>
<path d="M42.8665 28.8624V13.9748L31.3496 8.91968V23.8073L42.8665 28.8624Z" fill="white"/>
<path d="M42.8671 28.8625L31.3502 23.8074L19.8333 28.8625L31.3502 33.6379L42.8671 28.8625Z" fill="white"/>
<path d="M31.3502 23.8073V8.91968L19.8333 13.9748V28.8624L31.3502 23.8073Z" fill="white"/>
<path d="M43.428 12.5701L31.9111 7.79468H30.2289L19.2734 12.5701C18.7099 12.8519 18.1484 13.4112 18.1484 13.9747V28.8624C18.1484 29.426 18.4302 29.9874 19.2734 30.2671L30.7882 35.3158C30.9425 35.4542 31.1425 35.5307 31.3497 35.5307C31.5569 35.5307 31.7568 35.4542 31.9111 35.3158L43.428 30.2692C43.9916 29.9895 44.553 29.4281 44.553 28.8645V13.9768C44.553 13.4133 43.9916 12.8519 43.428 12.5701ZM21.2458 15.0997L29.9534 11.4472V23.2459L21.2458 26.9047V15.0997ZM31.3581 32.2353L23.4916 28.8708L31.3581 25.5064L39.2246 28.8708L31.3581 32.2353ZM41.4704 26.6166L32.7627 22.9641V11.1654L41.4704 14.818V26.6166Z" fill="#4949A3"/>
<path d="M5.98633 57.9395H2.48242V60.5645H6.57812V61.748H1V53.2168H6.53711V54.4121H2.48242V56.7676H5.98633V57.9395Z" fill="#FC6011"/>
<path d="M9.81875 55.4082L9.85977 56.1406C10.3285 55.5742 10.9438 55.291 11.7055 55.291C13.0258 55.291 13.6977 56.0469 13.7211 57.5586V61.748H12.2973V57.6406C12.2973 57.2383 12.2094 56.9414 12.0336 56.75C11.8617 56.5547 11.5785 56.457 11.184 56.457C10.6098 56.457 10.182 56.7168 9.90078 57.2363V61.748H8.47695V55.4082H9.81875Z" fill="#FC6011"/>
<path d="M17.8113 53.8672V55.4082H18.9305V56.4629H17.8113V60.002C17.8113 60.2441 17.8582 60.4199 17.952 60.5293C18.0496 60.6348 18.2215 60.6875 18.4676 60.6875C18.6316 60.6875 18.7977 60.668 18.9656 60.6289V61.7305C18.6414 61.8203 18.3289 61.8652 18.0281 61.8652C16.9344 61.8652 16.3875 61.2617 16.3875 60.0547V56.4629H15.3445V55.4082H16.3875V53.8672H17.8113Z" fill="#FC6011"/>
<path d="M23.6652 61.8652C22.7629 61.8652 22.0305 61.582 21.468 61.0156C20.9094 60.4453 20.6301 59.6875 20.6301 58.7422V58.5664C20.6301 57.9336 20.7512 57.3691 20.9934 56.873C21.2395 56.373 21.5832 55.9844 22.0246 55.707C22.466 55.4297 22.9582 55.291 23.5012 55.291C24.3645 55.291 25.0305 55.5664 25.4992 56.1172C25.9719 56.668 26.2082 57.4473 26.2082 58.4551V59.0293H22.0656C22.1086 59.5527 22.2824 59.9668 22.5871 60.2715C22.8957 60.5762 23.2824 60.7285 23.7473 60.7285C24.3996 60.7285 24.9309 60.4648 25.341 59.9375L26.1086 60.6699C25.8547 61.0488 25.5148 61.3438 25.0891 61.5547C24.6672 61.7617 24.1926 61.8652 23.6652 61.8652ZM23.4953 56.4336C23.1047 56.4336 22.7883 56.5703 22.5461 56.8438C22.3078 57.1172 22.1555 57.498 22.0891 57.9863H24.802V57.8809C24.7707 57.4043 24.6437 57.0449 24.4211 56.8027C24.1984 56.5566 23.8898 56.4336 23.4953 56.4336Z" fill="#FC6011"/>
<path d="M31.4879 56.709C31.3004 56.6777 31.107 56.6621 30.9078 56.6621C30.2555 56.6621 29.816 56.9121 29.5895 57.4121V61.748H28.1656V55.4082H29.525L29.5602 56.1172C29.9039 55.5664 30.3805 55.291 30.9898 55.291C31.193 55.291 31.3609 55.3184 31.4937 55.373L31.4879 56.709Z" fill="#FC6011"/>
<path d="M38.7891 58.6426C38.7891 59.623 38.5664 60.4062 38.1211 60.9922C37.6758 61.5742 37.0781 61.8652 36.3281 61.8652C35.6328 61.8652 35.0762 61.6367 34.6582 61.1797V64.1855H33.2344V55.4082H34.5469L34.6055 56.0527C35.0234 55.5449 35.5918 55.291 36.3105 55.291C37.084 55.291 37.6895 55.5801 38.127 56.1582C38.5684 56.7324 38.7891 57.5312 38.7891 58.5547V58.6426ZM37.3711 58.5195C37.3711 57.8867 37.2441 57.3848 36.9902 57.0137C36.7402 56.6426 36.3809 56.457 35.9121 56.457C35.3301 56.457 34.9121 56.6973 34.6582 57.1777V59.9902C34.916 60.4824 35.3379 60.7285 35.9238 60.7285C36.377 60.7285 36.7305 60.5469 36.9844 60.1836C37.2422 59.8164 37.3711 59.2617 37.3711 58.5195Z" fill="#FC6011"/>
<path d="M44.1684 56.709C43.9809 56.6777 43.7875 56.6621 43.5883 56.6621C42.9359 56.6621 42.4965 56.9121 42.2699 57.4121V61.748H40.8461V55.4082H42.2055L42.2406 56.1172C42.5844 55.5664 43.0609 55.291 43.6703 55.291C43.8734 55.291 44.0414 55.3184 44.1742 55.373L44.1684 56.709Z" fill="#FC6011"/>
<path d="M47.4324 61.748H46.0086V55.4082H47.4324V61.748ZM45.9207 53.7617C45.9207 53.543 45.9891 53.3613 46.1258 53.2168C46.2664 53.0723 46.4656 53 46.7234 53C46.9813 53 47.1805 53.0723 47.3211 53.2168C47.4617 53.3613 47.532 53.543 47.532 53.7617C47.532 53.9766 47.4617 54.1562 47.3211 54.3008C47.1805 54.4414 46.9813 54.5117 46.7234 54.5117C46.4656 54.5117 46.2664 54.4414 46.1258 54.3008C45.9891 54.1562 45.9207 53.9766 45.9207 53.7617Z" fill="#FC6011"/>
<path d="M53.3918 60.0254C53.3918 59.7715 53.2863 59.5781 53.0754 59.4453C52.8684 59.3125 52.5227 59.1953 52.0383 59.0938C51.5539 58.9922 51.1496 58.8633 50.8254 58.707C50.1145 58.3633 49.759 57.8652 49.759 57.2129C49.759 56.666 49.9895 56.209 50.4504 55.8418C50.9113 55.4746 51.4973 55.291 52.2082 55.291C52.966 55.291 53.5773 55.4785 54.0422 55.8535C54.5109 56.2285 54.7453 56.7148 54.7453 57.3125H53.3215C53.3215 57.0391 53.2199 56.8125 53.0168 56.6328C52.8137 56.4492 52.5441 56.3574 52.2082 56.3574C51.8957 56.3574 51.6398 56.4297 51.4406 56.5742C51.2453 56.7188 51.1477 56.9121 51.1477 57.1543C51.1477 57.373 51.2395 57.543 51.423 57.6641C51.6066 57.7852 51.9777 57.9082 52.5363 58.0332C53.0949 58.1543 53.5324 58.3008 53.8488 58.4727C54.1691 58.6406 54.4055 58.8438 54.5578 59.082C54.7141 59.3203 54.7922 59.6094 54.7922 59.9492C54.7922 60.5195 54.5559 60.9824 54.0832 61.3379C53.6105 61.6895 52.9914 61.8652 52.2258 61.8652C51.7062 61.8652 51.2434 61.7715 50.8371 61.584C50.4309 61.3965 50.1145 61.1387 49.8879 60.8105C49.6613 60.4824 49.548 60.1289 49.548 59.75H50.9309C50.9504 60.0859 51.0773 60.3457 51.3117 60.5293C51.5461 60.709 51.8566 60.7988 52.2434 60.7988C52.6184 60.7988 52.9035 60.7285 53.0988 60.5879C53.2941 60.4434 53.3918 60.2559 53.3918 60.0254Z" fill="#FC6011"/>
<path d="M59.6793 61.8652C58.777 61.8652 58.0445 61.582 57.482 61.0156C56.9234 60.4453 56.6441 59.6875 56.6441 58.7422V58.5664C56.6441 57.9336 56.7652 57.3691 57.0074 56.873C57.2535 56.373 57.5973 55.9844 58.0387 55.707C58.4801 55.4297 58.9723 55.291 59.5152 55.291C60.3785 55.291 61.0445 55.5664 61.5133 56.1172C61.9859 56.668 62.2223 57.4473 62.2223 58.4551V59.0293H58.0797C58.1227 59.5527 58.2965 59.9668 58.6012 60.2715C58.9098 60.5762 59.2965 60.7285 59.7613 60.7285C60.4137 60.7285 60.9449 60.4648 61.3551 59.9375L62.1227 60.6699C61.8688 61.0488 61.5289 61.3438 61.1031 61.5547C60.6813 61.7617 60.2066 61.8652 59.6793 61.8652ZM59.5094 56.4336C59.1188 56.4336 58.8023 56.5703 58.5602 56.8438C58.3219 57.1172 58.1695 57.498 58.1031 57.9863H60.816V57.8809C60.7848 57.4043 60.6578 57.0449 60.4352 56.8027C60.2125 56.5566 59.9039 56.4336 59.5094 56.4336Z" fill="#FC6011"/>
</g>
<defs>
<clipPath id="clip0">
<rect width="64" height="64" fill="white"/>
</clipPath>
</defs>
</svg>

<svg xmlns="http://www.w3.org/2000/svg" xmlns:xlink="http://www.w3.org/1999/xlink" width="64" height="64" fill="none" xmlns:v="https://vecta.io/nano"><g clip-path="url(#A)"><g fill="#7272e9"><path d="M51.856 10.322v26.125l-20.506 8.71V33.638l11.517-4.775V13.975l8.989-3.653z"/><path d="M31.35 1.335l20.506 8.987-8.989 3.653L31.35 8.92l-11.517 5.055-8.71-3.652L31.35 1.335z"/><path d="M31.35 33.638v11.519l-20.227-8.71V10.322l8.71 3.653v14.888l11.517 4.775z"/></g><path d="M53.261 10.324v-.282-.282l-.282-.28L31.911.21C31.756.075 31.556 0 31.35 0s-.406.075-.561.21L10.282 8.92l-.282.28v.282.28 26.125c-.005.289.071.575.219.823s.364.45.622.582L31.066 46h1.682l20.225-8.71a1.54 1.54 0 0 0 .841-1.405l-.562-25.561h.008zM31.35 3.019l16.574 7.305-5.057 2.246-10.955-4.775c-.156-.135-.355-.21-.561-.21s-.406.075-.561.21L19.833 12.29h-.282l-4.775-1.966L31.35 3.019zm-1.405 39.89l-17.417-7.593V12.29l5.9 2.523v13.773c-.006.289.07.575.219.823s.364.45.622.582l10.676 4.483v8.434zm1.405-10.674L21.238 28.03V15.1l10.112-4.496L41.462 15.1v12.922L31.35 32.235zm18.822 3.081l-17.417 7.585v-8.138l10.674-4.494a1.54 1.54 0 0 0 .841-1.405V14.818l5.9-2.523.002 23.021z" fill="#4949a3"/><g fill="#fff"><path d="M42.867 28.862V13.975L31.35 8.92v14.888l11.517 5.055z"/><path d="M42.867 28.863L31.35 23.807l-11.517 5.055 11.517 4.775 11.517-4.775z"/><path d="M31.35 23.807V8.92l-11.517 5.055v14.888l11.517-5.055z"/></g><path d="M43.428 12.57L31.911 7.795h-1.682L19.273 12.57c-.563.282-1.125.841-1.125 1.405v14.888c0 .564.282 1.125 1.125 1.405l11.515 5.049a.84.84 0 0 0 1.123 0l11.517-5.047c.564-.28 1.125-.841 1.125-1.405V13.977c0-.564-.561-1.125-1.125-1.407zM21.246 15.1l8.708-3.652v11.799l-8.708 3.659V15.1zm10.112 17.136l-7.867-3.365 7.867-3.364 7.867 3.364-7.867 3.365zm10.112-5.619l-8.708-3.652V11.165l8.708 3.653v11.799z" fill="#4949a3"/><g fill="#fc6011"><path d="M5.986 57.94H2.482v2.625h4.096v1.183H1v-8.531h5.537v1.195H2.482v2.355h3.504v1.172zm3.833-2.532l.041.732c.469-.566 1.084-.85 1.846-.85 1.32 0 1.992.756 2.016 2.268v4.189h-1.424V57.64c0-.402-.088-.699-.264-.891s-.455-.293-.85-.293c-.574 0-1.002.26-1.283.779v4.512H8.477v-6.34h1.342zm7.992-1.541v1.541h1.119v1.055h-1.119v3.539c0 .242.047.418.141.527s.269.158.516.158a2.19 2.19 0 0 0 .498-.059v1.102a3.5 3.5 0 0 1-.937.135c-1.094 0-1.641-.604-1.641-1.811v-3.592h-1.043v-1.055h1.043v-1.541h1.424zm5.854 7.998c-.902 0-1.635-.283-2.197-.85s-.838-1.328-.838-2.273v-.176c0-.633.121-1.197.363-1.693a2.8 2.8 0 0 1 1.031-1.166 2.72 2.72 0 0 1 1.477-.416c.863 0 1.529.275 1.998.826s.709 1.33.709 2.338v.574h-4.143c.043.523.217.938.521 1.242s.695.457 1.16.457c.652 0 1.184-.264 1.594-.791l.768.732a2.58 2.58 0 0 1-1.02.885 3.19 3.19 0 0 1-1.424.311zm-.17-5.432c-.391 0-.707.137-.949.41s-.391.654-.457 1.142h2.713v-.105c-.031-.477-.158-.836-.381-1.078s-.531-.369-.926-.369z"/><use xlink:href="#B"/><path d="M38.789 58.643c0 .98-.223 1.764-.668 2.35a2.14 2.14 0 0 1-1.793.873c-.695 0-1.252-.229-1.67-.686v3.006h-1.424v-8.777h1.313l.059.645c.418-.508.986-.762 1.705-.762.774 0 1.379.289 1.817.867s.662 1.373.662 2.396v.088zm-1.418-.123c0-.633-.127-1.135-.381-1.506a1.22 1.22 0 0 0-1.078-.557c-.582 0-1 .24-1.254.721v2.813c.258.492.68.738 1.266.738a1.22 1.22 0 0 0 1.061-.545c.258-.367.387-.922.387-1.664zm6.797-1.811a3.52 3.52 0 0 0-.58-.047c-.652 0-1.092.25-1.318.75v4.336h-1.424v-6.34h1.359l.035.709c.344-.551.82-.826 1.43-.826.203 0 .371.027.504.082l-.006 1.336zm3.264 5.039h-1.424v-6.34h1.424v6.34zm-1.512-7.986a.76.76 0 0 1 .205-.545c.141-.145.34-.217.598-.217s.457.072.598.217a.75.75 0 0 1 .211.545.74.74 0 0 1-.211.539c-.141.144-.34.211-.598.211s-.457-.07-.598-.211a.73.73 0 0 1-.205-.539zm7.472 6.263c0-.254-.106-.447-.316-.58s-.553-.25-1.037-.352-.889-.23-1.213-.387c-.711-.344-1.066-.842-1.066-1.494 0-.547.23-1.004.691-1.371s1.047-.551 1.758-.551c.758 0 1.369.188 1.834.563a1.78 1.78 0 0 1 .703 1.459h-1.424a.87.87 0 0 0-.305-.68c-.203-.184-.473-.275-.809-.275-.312 0-.568.072-.768.217s-.293.338-.293.58c0 .219.092.389.275.51s.555.244 1.113.369.996.268 1.313.44.557.371.709.609a1.58 1.58 0 0 1 .234.867c0 .57-.236 1.033-.709 1.389s-1.092.527-1.857.527c-.52 0-.982-.094-1.389-.281s-.723-.445-.949-.774a1.83 1.83 0 0 1-.34-1.06h1.383c.02.336.146.596.381.779s.545.27.932.27c.375 0 .66-.07.855-.211a.67.67 0 0 0 .293-.562zm6.287 1.84c-.902 0-1.635-.283-2.197-.85s-.838-1.328-.838-2.273v-.176c0-.633.121-1.197.363-1.693a2.8 2.8 0 0 1 1.031-1.166 2.72 2.72 0 0 1 1.477-.416c.863 0 1.529.275 1.998.826s.709 1.33.709 2.338v.574H58.08c.043.523.217.938.521 1.242s.695.457 1.16.457c.652 0 1.184-.264 1.594-.791l.768.732a2.58 2.58 0 0 1-1.02.885c-.422.207-.896.311-1.424.311zm-.17-5.432c-.391 0-.707.137-.949.41s-.391.654-.457 1.142h2.713v-.105c-.031-.477-.158-.836-.381-1.078s-.531-.369-.926-.369z"/></g></g><defs><clipPath id="A"><path fill="#fff" d="M0 0h64v64H0z"/></clipPath><path id="B" d="M31.488 56.709a3.52 3.52 0 0 0-.58-.047c-.652 0-1.092.25-1.318.75v4.336h-1.424v-6.34h1.359l.035.709c.344-.551.82-.826 1.43-.826.203 0 .371.027.504.082l-.006 1.336z"/></defs></svg>
